Papirus-nordic/48x48/places/folder-nordic-nextcloud.svg

<svg xmlns="http://www.w3.org/2000/svg" width="48" height="48" version="1"><rect width="40" height="26" x="4" y="17" rx="2" ry="2" opacity=".2"/><path d="M4 34c0 1.108.892 2 2 2h36c1.108 0 2-.892 2-2V12c0-1.108-.892-2-2-2H22V8c0-1.108-.892-2-2-2H6c-1.108 0-2 .892-2 2" fill="#6c9b9a"/><rect width="40" height="26" x="4" y="15" rx="2" ry="2" opacity=".2"/><rect width="36" height="16" x="6" y="13" rx="2" ry="2" fill="#e4e4e4"/><rect width="40" height="26" x="4" y="16" rx="2" ry="2" fill="#82abaa"/><path d="M6 6c-1.108 0-2 .892-2 2v1c0-1.108.892-2 2-2h14c1.108 0 2 .892 2 2V8c0-1.108-.892-2-2-2zm16 4v1h20c1.108 0 2 .892 2 2v-1c0-1.108-.892-2-2-2z" fill="#fff" opacity=".1"/><path d="M35 24a5 5 0 0 0-5 5 5 5 0 0 0 5 5 5 5 0 0 0 5-5 5 5 0 0 0-5-5zm0 3a2 2 0 0 1 2 2 2 2 0 0 1-2 2 2 2 0 0 1-2-2 2 2 0 0 1 2-2zm-22-3a5 5 0 0 0-5 5 5 5 0 0 0 5 5 5 5 0 0 0 5-5 5 5 0 0 0-5-5zm0 3a2 2 0 0 1 2 2 2 2 0 0 1-2 2 2 2 0 0 1-2-2 2 2 0 0 1 2-2zm11-4a6 6 0 0 0-6 6 6 6 0 0 0 6 6 6 6 0 0 0 6-6 6 6 0 0 0-6-6zm0 3a3 3 0 0 1 3 3 3 3 0 0 1-3 3 3 3 0 0 1-3-3 3 3 0 0 1 3-3z" fill="#4e6766"/></svg>

<svg xmlns="http://www.w3.org/2000/svg" width="48" height="48" version="1">
 <rect style="opacity:0.2" width="40" height="26" x="4" y="17" rx="2" ry="2"/>
 <path style="fill:#6c9b9a" d="m4 34c0 1.108 0.892 2 2 2h36c1.108 0 2-0.892 2-2v-22c0-1.108-0.892-2-2-2h-20v-2c0-1.108-0.892-2-2-2h-14c-1.108 0-2 0.892-2 2"/>
 <rect style="opacity:0.2" width="40" height="26" x="4" y="15" rx="2" ry="2"/>
 <rect style="fill:#e4e4e4" width="36" height="16" x="6" y="13" rx="2" ry="2"/>
 <rect style="fill:#82abaa" width="40" height="26" x="4" y="16" rx="2" ry="2"/>
 <path style="fill:#ffffff;opacity:0.1" d="m6 6c-1.108 0-2 0.892-2 2v1c0-1.108 0.892-2 2-2h14c1.108 0 2 0.892 2 2v-1c0-1.108-0.892-2-2-2zm16 4v1h20c1.108 0 2 0.892 2 2v-1c0-1.108-0.892-2-2-2z"/>
 <path style="fill:#4e6766" d="M 35,24 A 5,5 0 0 0 30,29 5,5 0 0 0 35,34 5,5 0 0 0 40,29 5,5 0 0 0 35,24 Z M 35,27 A 2,2 0 0 1 37,29 2,2 0 0 1 35,31 2,2 0 0 1 33,29 2,2 0 0 1 35,27 Z M 13,24 A 5,5 0 0 0 8,29 5,5 0 0 0 13,34 5,5 0 0 0 18,29 5,5 0 0 0 13,24 Z M 13,27 A 2,2 0 0 1 15,29 2,2 0 0 1 13,31 2,2 0 0 1 11,29 2,2 0 0 1 13,27 Z M 24,23 A 6,6 0 0 0 18,29 6,6 0 0 0 24,35 6,6 0 0 0 30,29 6,6 0 0 0 24,23 Z M 24,26 A 3,3 0 0 1 27,29 3,3 0 0 1 24,32 3,3 0 0 1 21,29 3,3 0 0 1 24,26 Z"/>
</svg>
